envergo/static/images/geometrician.svg

<svg width="411" height="408" fill="none" xmlns="http://www.w3.org/2000/svg"><ellipse cx="222.743" cy="186.515" rx="95.387" ry="95.355" fill="#000091"/><path fill="#000091" d="M127.356 186.235H318.13v190.709H127.356z"/><path d="M237.179 139.818l1.14.902 1.139-.902c.912-.721 22.322-17.879 22.322-37.138 0-13.056-10.525-23.68-23.461-23.68-12.937 0-23.462 10.624-23.462 23.68 0 19.259 21.41 36.417 22.322 37.138zm1.14-57.088c10.898 0 19.766 8.95 19.766 19.95 0 15.039-15.399 29.458-19.766 33.244-4.368-3.786-19.767-18.205-19.767-33.244 0-11 8.868-19.95 19.767-19.95z" fill="#FCC0B4"/><path d="M238.538 113.828c6.528 0 11.84-5.34 11.84-11.903 0-6.563-5.312-11.903-11.84-11.903-6.529 0-11.841 5.34-11.841 11.903 0 6.563 5.312 11.903 11.841 11.903zm0-20.059c4.473 0 8.112 3.66 8.112 8.156 0 4.497-3.639 8.156-8.112 8.156-4.473 0-8.113-3.659-8.113-8.156 0-4.497 3.64-8.156 8.113-8.156z" fill="#FCC0B4"/><path fill="#0063CB" d="M273.305 231.137h95.667v171.694h-95.667z"/><path fill-rule="evenodd" clip-rule="evenodd" d="M273.305 231.697h95.666l.001-.28c0-52.663-42.707-95.354-95.387-95.354h-.28v95.634z" fill="#0063CB"/><g clip-path="url(#clip0_152_440)" stroke="#73E0CF" stroke-width="4" stroke-miterlimit="10"><path d="M254.371 187.627c16.669 0 16.669 16.458 33.338 16.458s16.669-16.458 33.338-16.458c16.671 0 16.671 16.458 33.342 16.458s16.671-16.458 33.342-16.458m-133.36 29.625c16.669 0 16.669 16.459 33.338 16.459s16.669-16.459 33.338-16.459c16.671 0 16.671 16.459 33.342 16.459s16.671-16.459 33.342-16.459"/><path d="M254.371 232.065c16.669 0 16.669 16.458 33.338 16.458s16.669-16.458 33.338-16.458c16.671 0 16.671 16.458 33.342 16.458s16.671-16.458 33.342-16.458"/><path d="M254.371 202.44c16.669 0 16.669 16.458 33.338 16.458s16.669-16.458 33.338-16.458c16.671 0 16.671 16.458 33.342 16.458s16.671-16.458 33.342-16.458" stroke-linecap="round"/></g><path stroke="#fff" d="M273.374 377.444H52.389"/><ellipse cx="365.552" cy="49.423" rx="31.329" ry="31.319" fill="#FF4347"/><ellipse cx="76.166" cy="258.201" rx="40.56" ry="40.547" fill="#000091"/><path fill-rule="evenodd" clip-rule="evenodd" d="M94.305 294.551c-2.36.427-4.792.65-7.275.65-22.4 0-40.56-18.154-40.56-40.547 0-15.875 9.127-29.62 22.421-36.276-18.93 3.427-33.286 19.986-33.286 39.896 0 22.394 18.16 40.547 40.56 40.547a40.42 40.42 0 0018.14-4.27z" fill="#030357"/><path d="M79.787 376.944H75.08l1.449-78.197h1.086l.725 24.98 5.794-2.896.724 1.81-6.518 3.258 1.448 51.045z" fill="#242424"/><ellipse cx="114.336" cy="287.31" rx="30.617" ry="30.607" fill="#6A6AF4"/><path d="M117.07 376.944h-3.554l1.093-59.027h.82l.547 18.856 4.374-2.187.547 1.367-4.921 2.459 1.094 38.532z" fill="#6A6AF4"/><rect y="33.197" width="193.572" height="120.242" rx="28" fill="#EEE"/><path d="M43.139 61.72l-1.09 1.07c-2.397 2.363-4.246 4.345-6.443 6.557l-2.233-1.858-1.177-.976-1.985 2.307 1.176.976 3.33 2.77 1.081.898 1-.984c2.765-2.724 4.729-4.895 7.43-7.557l1.088-1.07-2.177-2.134zm0 26.844l-1.09 1.07c-2.397 2.364-4.246 4.346-6.443 6.558l-2.233-1.858-1.177-.976-1.985 2.306 1.176.976 3.33 2.771 1.081.898 1-.984c2.765-2.724 4.729-4.896 7.43-7.557l1.088-1.07-2.177-2.134zm0 26.845l-1.09 1.07c-2.397 2.364-4.246 4.345-6.443 6.557l-2.233-1.857-1.177-.976-1.985 2.306 1.176.976 3.33 2.771 1.081.897 1-.984c2.765-2.724 4.729-4.895 7.43-7.556l1.088-1.071-2.177-2.133z" fill="#0078F3"/><path d="M193.572 156.507c0 5.877-6.804 9.138-11.385 5.457l-30.896-24.827 42.281-6.012v25.382z" fill="#EEE"/><path d="M61.54 65.634h96.786M61.54 94.157h96.786M61.54 121.001h96.786" stroke="#000091" stroke-width="6" stroke-linecap="round"/><path d="M190.706 376.371h-1.061l-7.345.088s-1.593 7.158-2.301 10.163c-.088.177-.177.707-.265 1.06-.177.53-.177 1.061-.177 1.591.177 2.651 1.239 5.037 3.628 6.274 2.655 1.326 4.778 2.651 7.521 0 2.744-2.651 3.186-4.242 2.124-8.748-1.062-4.596-1.416-10.34-2.124-10.428zm29.29 9.014c-4.778-1.591-8.052-8.042-8.052-8.042l-8.23-.53s-.442 6.627-.619 9.986c-.266 4.418.531 6.539 3.362 6.274 3.894-.354 19.734 1.149 22.211-.53 3.274-2.033-4.159-5.744-8.672-7.158z" fill="#1212FF"/><path d="M221.412 314.158c.354 3.358-2.124 20.855-2.124 24.214 0 3.358-7.344 38.971-7.344 38.971l-8.407-.265s1.947-52.581 1.682-55.143c-.177-2.563-10.796-33.051-10.796-33.051s-.796 8.042-.796 10.605c0 2.562-2.832 76.882-2.832 76.882h-8.407l-12.034-109.756-1.151-9.367 45.572 1.148s6.283 52.404 6.637 55.762z" fill="url(#paint0_linear_152_440)"/><path d="M227.076 235.95l-3.806 3.27 1.239 5.126 1.593 2.297c-.177.177-.531-1.149 1.239-.177l3.363-.176 2.566-3.358s-1.328-15.377-7.345-26.07l1.151 19.088zm-4.69-20.325l-.354-2.121-.885-.176 1.239 2.297zm-32.122-56.645c2.124-.884 10.353-4.772 11.592-3.977 1.858 1.591 3.186 3.623 3.717 5.921.354 1.591 1.592 3.623 1.858 3.358.885-.884.708 2.563.708 3.623-.266 1.502-.885 3.005-1.947 4.065-.708.53-1.416 2.475-1.77 3.977-.354 1.591-1.062 4.86-.442 6.274.708 1.591 9.38 17.321 17.078 31.195l-43.36-7.777-13.715 28.897 6.194 4.949-1.77 5.921-1.15.177s-.974 2.297-2.035 1.237c-.885-.884-2.124-.442-2.655-.177-.177.088-.354.088-.531.088l-1.416-.265-.885-7.776 13.362-41.004s16.017-14.404 16.99-14.935c.885-.53 1.239-4.418.354-6.274-.885-1.856-1.947-3.623-3.009-5.391-.708-1.06-1.592-5.125-1.592-6.892 0-1.768 1.061-1.149 1.061-1.149s.974-3.447 3.098-4.419c.796-.53 11.857-3.623 11.857-3.623" fill="url(#paint1_linear_152_440)"/><path d="M173.186 188.849c-2.124 1.414-4.071 3.358-4.779 5.832-.708 2.475-12.742 25.628-13.362 27.307-.531 1.679-2.831 8.395-1.593 15.553 1.239 7.246 6.726 8.925 7.699 8.925.531 0-.442-3.711-.619-6.274-.089-.884.707-3.181.884-4.065.354-1.325 1.505-.972 1.505-2.209 0-2.298 5.663-10.163 7.787-14.493 2.124-4.418 6.106-5.125 6.814-7.07.707-1.944-5.929 39.414-5.929 39.414s-.177 7.246 1.239 7.953c1.238.619 16.547 6.451 20.087 7.777.354.176.796-.089.973-.442l2.301-6.451c0-.089.088-.177.177-.089.088 0 .088.089.088.089l2.124 6.981c.088.353.531.53.885.53l18.76-4.065s-.266-34.641.088-40.474c.266-5.655-.442-8.837.62-7.334 1.15 1.679 10.53 10.958 10.53 13.609-.089 1.502.619 2.828 1.858 3.711l-.531 12.726s5.309-5.921 5.84-9.191c.531-3.358.708-5.125-.885-8.395-1.592-3.358-10.176-33.581-10.176-33.581s-.885-3.711-7.256-5.567c-6.371-1.944-11.15-4.772-12.3-4.684-1.15.089-4.69 6.716-6.283 8.661-.708.883-.531 1.237-1.504 2.562-.531.619-1.416.796-2.035.265-.177-.176-.266-.176-.354-.441-.531-.796-.885-1.591-1.328-2.298-.707-1.414-6.194-9.456-6.194-9.456s-13.008 3.27-15.131 4.684z" fill="url(#paint2_linear_152_440)"/><path d="M201.768 155.003s-10.973 3.712-13.008 5.479c-1.239 1.149-1.947 2.563-1.947 2.563s-1.062-.442-1.062 1.149c0 0-.442-1.061-.796-1.679-.354-.619-1.682-4.065-.443-6.717 1.239-2.651 2.832-4.241 3.451-4.683.62-.442 4.336-3.623 7.964-3.447 3.628.177 5.929 2.651 6.637 3.182.708.53 1.947 1.59 2.832 1.855.885.266 3.008 3.093 3.097 5.214.177 2.121-.62 6.716-.62 6.716s-.088-.618-.531-.265c-.442.354-1.592-1.944-1.946-3.534-.354-1.68-3.628-5.833-3.628-5.833z" fill="url(#paint3_linear_152_440)"/><path opacity=".31" d="M187.521 264.847s-5.044 26.777-2.389 37.469c3.982 16.261-1.77 38.176-1.77 48.693 0 6.804 2.654 25.804 2.831 33.404.089 2.297 1.682 6.804.531 7.864-.531.442-3.716-.53-5.574-1.413-.885-.442-1.505-1.414-1.328-2.386l1.062-4.596 1.504-6.009-10.441-97.914s-3.363-21.828-1.505-21.916c1.947 0 17.079 6.804 17.079 6.804z" fill="#000"/><path d="M178.318 215.625l16.282-5.037.796 46.041-14.954 5.656-2.124-46.66z" fill="#fff"/><path d="M194.6 210.588l19.202 5.744v45.246l-18.406-4.949-.796-46.041z" fill="#fff"/><path d="M213.802 216.332l18.406-5.656-2.566 23.949-4.513 3.358c-.531.353-.797.884-.885 1.414l-.177.883c-.089.442 0 .884.177 1.238l.796 1.944c.266.618.708 1.237 1.328 1.59l2.654 1.414-.177 9.721-15.131 5.567v-45.422h.088zm-35.484-.707l-17.875-5.567 2.478 24.302 4.424 3.358c.443.353.797.883.885 1.414l.177.883c.089.442 0 .884-.177 1.238l-.708 1.944c-.265.618-.708 1.237-1.327 1.59l-2.566 1.414.177 10.251 16.636 5.833-2.124-46.66zm15.928-4.86l.354-.177.354.088.796 46.13-.354-.177-.531.177-.619-46.041z" fill="#E1E6FC"/><path fill-rule="evenodd" clip-rule="evenodd" d="M287.178 280.68h-25.277a5 5 0 00-5 5v36.1h23.625a2.5 2.5 0 110 5h-2.27c.094.155.18.318.258.49l34.568 76.081a2.5 2.5 0 01-4.552 2.068l-10.168-22.379-19.511 22.255a5.5 5.5 0 01-8.271 0l-19.769-22.55-10.213 22.667a2.499 2.499 0 11-4.558-2.054l34.274-76.075c.08-.177.168-.344.264-.503h-21.86a2.5 2.5 0 010-5h3.183v-36.1c0-5.523 4.478-10 10-10h25.277c5.523 0 10 4.477 10 10v36.1h4.146a2.5 2.5 0 110 5H289.09a2.5 2.5 0 010-5h3.088v-36.1a5 5 0 00-5-5zm-12.769 11.856a6.647 6.647 0 00-4.524 1.766 2.5 2.5 0 11-3.389-3.676 11.647 11.647 0 017.913-3.09c6.448 0 11.676 5.225 11.676 11.673 0 6.447-5.228 11.672-11.676 11.672-6.447 0-11.675-5.225-11.675-11.672a2.5 2.5 0 115 0 6.674 6.674 0 006.675 6.672 6.674 6.674 0 006.676-6.672 6.674 6.674 0 00-6.676-6.673zm2.806 43.963l18.877 41.546-18.877 21.531v-63.077zm-5-1.263v64.34l-19.147-21.841 19.147-42.499z" fill="#FFCA00"/><defs><linearGradient id="paint0_linear_152_440" x1="169.203" y1="317.295" x2="221.501" y2="317.295" gradientUnits="userSpaceOnUse"><stop stop-color="#0D0D9D"/><stop offset="1" stop-color="#6060EA"/></linearGradient><linearGradient id="paint1_linear_152_440" x1="178.999" y1="201.148" x2="233.13" y2="200.998" gradientUnits="userSpaceOnUse"><stop stop-color="#CB8C7B"/><stop offset=".333" stop-color="#F1B5A5"/><stop offset=".667" stop-color="#F6D0C6"/><stop offset="1" stop-color="#FCC0B0"/></linearGradient><linearGradient id="paint2_linear_152_440" x1="153.091" y1="226.141" x2="236.807" y2="226.141" gradientUnits="userSpaceOnUse"><stop stop-color="#FBB8F6"/><stop offset="1" stop-color="#6A6AF4"/></linearGradient><linearGradient id="paint3_linear_152_440" x1="196.256" y1="147.661" x2="196.256" y2="164.635" gradientUnits="userSpaceOnUse"><stop stop-color="#4949D5"/><stop offset="1" stop-color="#26266F"/></linearGradient><clipPath id="clip0_152_440"><path fill="#fff" transform="translate(254.371 170.345)" d="M0 0h133.36v80.647H0z"/></clipPath></defs></svg>

<svg width="411" height="408" viewBox="0 0 411 408" fill="none" xmlns="http://www.w3.org/2000/svg">
<ellipse cx="222.743" cy="186.515" rx="95.3872" ry="95.3545" fill="#000091"/>
<rect x="127.356" y="186.235" width="190.774" height="190.709" fill="#000091"/>
<path d="M237.179 139.818L238.319 140.72L239.458 139.818C240.37 139.097 261.78 121.939 261.78 102.68C261.78 89.6238 251.255 79.0008 238.319 79.0008C225.382 79.0008 214.857 89.6238 214.857 102.68C214.857 121.939 236.267 139.097 237.179 139.818ZM238.319 82.7305C249.217 82.7305 258.085 91.6802 258.085 102.68C258.085 117.719 242.686 132.138 238.319 135.924C233.951 132.138 218.552 117.719 218.552 102.68C218.552 91.6802 227.42 82.7305 238.319 82.7305Z" fill="#FCC0B4"/>
<path d="M238.538 113.828C245.066 113.828 250.378 108.488 250.378 101.925C250.378 95.3621 245.066 90.0221 238.538 90.0221C232.009 90.0221 226.697 95.3621 226.697 101.925C226.697 108.488 232.009 113.828 238.538 113.828ZM238.538 93.7695C243.011 93.7695 246.65 97.4283 246.65 101.925C246.65 106.422 243.011 110.081 238.538 110.081C234.065 110.081 230.425 106.422 230.425 101.925C230.425 97.4283 234.065 93.7695 238.538 93.7695Z" fill="#FCC0B4"/>
<rect x="273.305" y="231.137" width="95.6669" height="171.694" fill="#0063CB"/>
<path fill-rule="evenodd" clip-rule="evenodd" d="M273.305 231.697H368.971C368.972 231.603 368.972 231.51 368.972 231.417C368.972 178.754 326.265 136.063 273.585 136.063C273.542 136.063 273.5 136.063 273.457 136.063C273.406 136.063 273.356 136.063 273.305 136.063V231.697Z" fill="#0063CB"/>
<g clip-path="url(#clip0_152_440)">
<path d="M254.371 187.627C271.04 187.627 271.04 204.085 287.709 204.085C304.378 204.085 304.378 187.627 321.047 187.627C337.718 187.627 337.718 204.085 354.389 204.085C371.06 204.085 371.06 187.627 387.731 187.627" stroke="#73E0CF" stroke-width="4" stroke-miterlimit="10"/>
<path d="M254.371 217.252C271.04 217.252 271.04 233.711 287.709 233.711C304.378 233.711 304.378 217.252 321.047 217.252C337.718 217.252 337.718 233.711 354.389 233.711C371.06 233.711 371.06 217.252 387.731 217.252" stroke="#73E0CF" stroke-width="4" stroke-miterlimit="10"/>
<path d="M254.371 232.065C271.04 232.065 271.04 248.523 287.709 248.523C304.378 248.523 304.378 232.065 321.047 232.065C337.718 232.065 337.718 248.523 354.389 248.523C371.06 248.523 371.06 232.065 387.731 232.065" stroke="#73E0CF" stroke-width="4" stroke-miterlimit="10"/>
<path d="M254.371 202.44C271.04 202.44 271.04 218.898 287.709 218.898C304.378 218.898 304.378 202.44 321.047 202.44C337.718 202.44 337.718 218.898 354.389 218.898C371.06 218.898 371.06 202.44 387.731 202.44" stroke="#73E0CF" stroke-width="4" stroke-miterlimit="10" stroke-linecap="round"/>
</g>
<line x1="273.374" y1="377.444" x2="52.389" y2="377.444" stroke="white"/>
<ellipse cx="365.552" cy="49.4231" rx="31.3295" ry="31.3188" fill="#FF4347"/>
<ellipse cx="76.1658" cy="258.201" rx="40.5605" ry="40.5466" fill="#000091"/>
<path fill-rule="evenodd" clip-rule="evenodd" d="M94.3047 294.551C91.9447 294.978 89.5135 295.201 87.0303 295.201C64.6293 295.201 46.4697 277.047 46.4697 254.654C46.4697 238.779 55.5967 225.034 68.8914 218.378C49.9619 221.805 35.6053 238.364 35.6053 258.274C35.6053 280.668 53.7649 298.821 76.1658 298.821C82.6858 298.821 88.8465 297.283 94.3047 294.551Z" fill="#030357"/>
<path d="M79.7873 376.944H75.0794L76.528 298.747H77.6144L78.3387 323.727L84.1331 320.831L84.8574 322.641L78.3387 325.899L79.7873 376.944Z" fill="#242424"/>
<ellipse cx="114.336" cy="287.31" rx="30.6175" ry="30.607" fill="#6A6AF4"/>
<path d="M117.07 376.944H113.516L114.609 317.917H115.429L115.976 336.773L120.35 334.586L120.897 335.953L115.976 338.412L117.07 376.944Z" fill="#6A6AF4"/>
<rect y="33.197" width="193.572" height="120.242" rx="28" fill="#EEEEEE"/>
<path d="M43.1386 61.7194L42.0499 62.79C39.6518 65.1532 37.8031 67.1348 35.6059 69.3471L33.3725 67.4893L32.1958 66.5133L30.2106 68.8197L31.3873 69.7958L34.7174 72.5666L35.798 73.464L36.7987 72.48C39.5628 69.7561 41.5266 67.5846 44.2272 64.9232L45.3159 63.8526L43.1386 61.7194Z" fill="#0078F3"/>
<path d="M43.1386 88.5641L42.0499 89.6346C39.6518 91.9979 37.8031 93.9795 35.6059 96.1917L33.3725 94.334L32.1958 93.3579L30.2106 95.6643L31.3873 96.6404L34.7174 99.4113L35.798 100.309L36.7987 99.3246C39.5628 96.6007 41.5266 94.4293 44.2272 91.7678L45.3159 90.6973L43.1386 88.5641Z" fill="#0078F3"/>
<path d="M43.1386 115.409L42.0499 116.479C39.6518 118.843 37.8031 120.824 35.6059 123.036L33.3725 121.179L32.1958 120.203L30.2106 122.509L31.3873 123.485L34.7174 126.256L35.798 127.153L36.7987 126.169C39.5628 123.445 41.5266 121.274 44.2272 118.613L45.3159 117.542L43.1386 115.409Z" fill="#0078F3"/>
<path d="M193.572 156.507C193.572 162.384 186.768 165.645 182.187 161.964L151.291 137.137L193.572 131.125L193.572 156.507Z" fill="#EEEEEE"/>
<path d="M61.5401 65.6343H158.326" stroke="#000091" stroke-width="6" stroke-linecap="round"/>
<path d="M61.5401 94.1567H158.326" stroke="#000091" stroke-width="6" stroke-linecap="round"/>
<path d="M61.5401 121.001H158.326" stroke="#000091" stroke-width="6" stroke-linecap="round"/>
<path d="M190.706 376.371H189.645L182.3 376.459C182.3 376.459 180.707 383.617 179.999 386.622C179.911 386.799 179.822 387.329 179.734 387.682C179.557 388.212 179.557 388.743 179.557 389.273C179.734 391.924 180.796 394.31 183.185 395.547C185.84 396.873 187.963 398.198 190.706 395.547C193.45 392.896 193.892 391.305 192.83 386.799C191.768 382.203 191.414 376.459 190.706 376.371Z" fill="#1212FF"/>
<path d="M219.996 385.385C215.218 383.794 211.944 377.343 211.944 377.343L203.714 376.813C203.714 376.813 203.272 383.44 203.095 386.799C202.829 391.217 203.626 393.338 206.457 393.073C210.351 392.719 226.191 394.222 228.668 392.543C231.942 390.51 224.509 386.799 219.996 385.385Z" fill="#1212FF"/>
<path d="M221.412 314.158C221.766 317.516 219.288 335.013 219.288 338.372C219.288 341.73 211.944 377.343 211.944 377.343L203.537 377.078C203.537 377.078 205.484 324.497 205.219 321.935C205.042 319.372 194.423 288.884 194.423 288.884C194.423 288.884 193.627 296.926 193.627 299.489C193.627 302.051 190.795 376.371 190.795 376.371H182.388L170.354 266.615L169.203 257.248L214.775 258.396C214.775 258.396 221.058 310.8 221.412 314.158Z" fill="url(#paint0_linear_152_440)"/>
<path d="M227.076 235.95L223.27 239.22L224.509 244.346L226.102 246.643C225.925 246.82 225.571 245.494 227.341 246.466L230.704 246.29L233.27 242.932C233.27 242.932 231.942 227.555 225.925 216.862L227.076 235.95ZM222.386 215.625L222.032 213.504L221.147 213.328L222.386 215.625ZM190.264 158.98C192.388 158.096 200.617 154.208 201.856 155.003C203.714 156.594 205.042 158.626 205.573 160.924C205.927 162.515 207.165 164.547 207.431 164.282C208.316 163.398 208.139 166.845 208.139 167.905C207.873 169.407 207.254 170.91 206.192 171.97C205.484 172.5 204.776 174.445 204.422 175.947C204.068 177.538 203.36 180.807 203.98 182.221C204.688 183.812 213.36 199.542 221.058 213.416L177.698 205.639L163.983 234.536L170.177 239.485L168.407 245.406L167.257 245.583C167.257 245.583 166.283 247.88 165.222 246.82C164.337 245.936 163.098 246.378 162.567 246.643C162.39 246.731 162.213 246.731 162.036 246.731L160.62 246.466L159.735 238.69L173.097 197.686C173.097 197.686 189.114 183.282 190.087 182.751C190.972 182.221 191.326 178.333 190.441 176.477C189.556 174.621 188.494 172.854 187.432 171.086C186.724 170.026 185.84 165.961 185.84 164.194C185.84 162.426 186.901 163.045 186.901 163.045C186.901 163.045 187.875 159.598 189.999 158.626C190.795 158.096 201.856 155.003 201.856 155.003" fill="url(#paint1_linear_152_440)"/>
<path d="M173.186 188.849C171.062 190.263 169.115 192.207 168.407 194.681C167.699 197.156 155.665 220.309 155.045 221.988C154.514 223.667 152.214 230.383 153.452 237.541C154.691 244.787 160.178 246.466 161.151 246.466C161.682 246.466 160.709 242.755 160.532 240.192C160.443 239.308 161.239 237.011 161.416 236.127C161.77 234.802 162.921 235.155 162.921 233.918C162.921 231.62 168.584 223.755 170.708 219.425C172.832 215.007 176.814 214.3 177.522 212.355C178.229 210.411 171.593 251.769 171.593 251.769C171.593 251.769 171.416 259.015 172.832 259.722C174.07 260.341 189.379 266.173 192.919 267.499C193.273 267.675 193.715 267.41 193.892 267.057L196.193 260.606C196.193 260.517 196.281 260.429 196.37 260.517C196.458 260.517 196.458 260.606 196.458 260.606L198.582 267.587C198.67 267.94 199.113 268.117 199.467 268.117L218.227 264.052C218.227 264.052 217.961 229.411 218.315 223.578C218.581 217.923 217.873 214.741 218.935 216.244C220.085 217.923 229.465 227.202 229.465 229.853C229.376 231.355 230.084 232.681 231.323 233.564L230.792 246.29C230.792 246.29 236.101 240.369 236.632 237.099C237.163 233.741 237.34 231.974 235.747 228.704C234.155 225.346 225.571 195.123 225.571 195.123C225.571 195.123 224.686 191.412 218.315 189.556C211.944 187.612 207.165 184.784 206.015 184.872C204.865 184.961 201.325 191.588 199.732 193.533C199.024 194.416 199.201 194.77 198.228 196.095C197.697 196.714 196.812 196.891 196.193 196.36C196.016 196.184 195.927 196.184 195.839 195.919C195.308 195.123 194.954 194.328 194.511 193.621C193.804 192.207 188.317 184.165 188.317 184.165C188.317 184.165 175.309 187.435 173.186 188.849Z" fill="url(#paint2_linear_152_440)"/>
<path d="M201.768 155.003C201.768 155.003 190.795 158.715 188.76 160.482C187.521 161.631 186.813 163.045 186.813 163.045C186.813 163.045 185.751 162.603 185.751 164.194C185.751 164.194 185.309 163.133 184.955 162.515C184.601 161.896 183.273 158.45 184.512 155.798C185.751 153.147 187.344 151.557 187.963 151.115C188.583 150.673 192.299 147.492 195.927 147.668C199.555 147.845 201.856 150.319 202.564 150.85C203.272 151.38 204.511 152.44 205.396 152.705C206.281 152.971 208.404 155.798 208.493 157.919C208.67 160.04 207.873 164.635 207.873 164.635C207.873 164.635 207.785 164.017 207.342 164.37C206.9 164.724 205.75 162.426 205.396 160.836C205.042 159.156 201.768 155.003 201.768 155.003Z" fill="url(#paint3_linear_152_440)"/>
<path opacity="0.31" d="M187.521 264.847C187.521 264.847 182.477 291.624 185.132 302.316C189.114 318.577 183.362 340.492 183.362 351.009C183.362 357.813 186.016 376.813 186.193 384.413C186.282 386.71 187.875 391.217 186.724 392.277C186.193 392.719 183.008 391.747 181.15 390.864C180.265 390.422 179.645 389.45 179.822 388.478L180.884 383.882L182.388 377.873L171.947 279.959C171.947 279.959 168.584 258.131 170.442 258.043C172.389 258.043 187.521 264.847 187.521 264.847Z" fill="black"/>
<path d="M178.318 215.625L194.6 210.588L195.396 256.629L180.442 262.285L178.318 215.625Z" fill="white"/>
<path d="M194.6 210.588L213.802 216.332V261.578L195.396 256.629L194.6 210.588Z" fill="white"/>
<path d="M213.802 216.332L232.208 210.676L229.642 234.625L225.129 237.983C224.598 238.336 224.332 238.867 224.244 239.397L224.067 240.28C223.978 240.722 224.067 241.164 224.244 241.518L225.04 243.462C225.306 244.08 225.748 244.699 226.368 245.052L229.022 246.466L228.845 256.187L213.714 261.754V216.332H213.802Z" fill="#E1E6FC"/>
<path d="M178.318 215.625L160.443 210.058L162.921 234.36L167.345 237.718C167.788 238.071 168.142 238.601 168.23 239.132L168.407 240.015C168.496 240.457 168.407 240.899 168.23 241.253L167.522 243.197C167.257 243.815 166.814 244.434 166.195 244.787L163.629 246.201L163.806 256.452L180.442 262.285L178.318 215.625Z" fill="#E1E6FC"/>
<path d="M194.246 210.765L194.6 210.588L194.954 210.676L195.75 256.806L195.396 256.629L194.865 256.806L194.246 210.765Z" fill="#E1E6FC"/>
<path fill-rule="evenodd" clip-rule="evenodd" d="M287.178 280.68H261.901C259.14 280.68 256.901 282.918 256.901 285.68V321.78H280.526C281.907 321.78 283.026 322.899 283.026 324.28C283.026 325.66 281.907 326.78 280.526 326.78H278.256C278.35 326.935 278.436 327.098 278.514 327.27L313.082 403.351C313.653 404.608 313.097 406.09 311.84 406.661C310.583 407.232 309.101 406.676 308.53 405.419L298.362 383.04L278.851 405.295C276.66 407.794 272.771 407.794 270.58 405.295L250.811 382.745L240.598 405.412C240.031 406.671 238.551 407.232 237.292 406.664C236.033 406.097 235.473 404.617 236.04 403.358L270.314 327.283C270.394 327.106 270.482 326.939 270.578 326.78H248.718C247.337 326.78 246.218 325.66 246.218 324.28C246.218 322.899 247.337 321.78 248.718 321.78H251.901V285.68C251.901 280.157 256.379 275.68 261.901 275.68H287.178C292.701 275.68 297.178 280.157 297.178 285.68V321.78H301.324C302.705 321.78 303.824 322.899 303.824 324.28C303.824 325.66 302.705 326.78 301.324 326.78H289.09C287.71 326.78 286.59 325.66 286.59 324.28C286.59 322.899 287.71 321.78 289.09 321.78H292.178V285.68C292.178 282.918 289.939 280.68 287.178 280.68ZM274.409 292.536C272.662 292.536 271.077 293.204 269.885 294.302C268.87 295.238 267.288 295.174 266.353 294.159C265.417 293.143 265.481 291.562 266.496 290.626C268.575 288.71 271.358 287.536 274.409 287.536C280.857 287.536 286.085 292.761 286.085 299.209C286.085 305.656 280.857 310.881 274.409 310.881C267.962 310.881 262.734 305.656 262.734 299.209C262.734 297.828 263.853 296.709 265.234 296.709C266.615 296.709 267.734 297.828 267.734 299.209C267.734 302.893 270.722 305.881 274.409 305.881C278.097 305.881 281.085 302.893 281.085 299.209C281.085 295.524 278.097 292.536 274.409 292.536ZM277.215 336.499L296.092 378.045L277.215 399.576V336.499ZM272.215 335.236V399.576L253.068 377.735L272.215 335.236Z" fill="#FFCA00"/>
<defs>
<linearGradient id="paint0_linear_152_440" x1="169.203" y1="317.295" x2="221.501" y2="317.295" gradientUnits="userSpaceOnUse">
<stop stop-color="#0D0D9D"/>
<stop offset="1" stop-color="#6060EA"/>
</linearGradient>
<linearGradient id="paint1_linear_152_440" x1="178.999" y1="201.148" x2="233.13" y2="200.998" gradientUnits="userSpaceOnUse">
<stop stop-color="#CB8C7B"/>
<stop offset="0.333333" stop-color="#F1B5A5"/>
<stop offset="0.666667" stop-color="#F6D0C6"/>
<stop offset="1" stop-color="#FCC0B0"/>
</linearGradient>
<linearGradient id="paint2_linear_152_440" x1="153.091" y1="226.141" x2="236.807" y2="226.141" gradientUnits="userSpaceOnUse">
<stop stop-color="#FBB8F6"/>
<stop offset="1" stop-color="#6A6AF4"/>
</linearGradient>
<linearGradient id="paint3_linear_152_440" x1="196.256" y1="147.661" x2="196.256" y2="164.635" gradientUnits="userSpaceOnUse">
<stop stop-color="#4949D5"/>
<stop offset="1" stop-color="#26266F"/>
</linearGradient>
<clipPath id="clip0_152_440">
<rect width="133.36" height="80.6466" fill="white" transform="translate(254.371 170.345)"/>
</clipPath>
</defs>
</svg>
